_includes/icons/color-ticket.svg

<svg fill="#666" height="50" viewBox="0 0 48 48" width="50" xmlns="http://www.w3.org/2000/svg"><path d="m44 20v-7c0-2.199219-1.800781-4-4-4h-5.5c0 .800781-.699219 1.5-1.5 1.5s-1.5-.699219-1.5-1.5h-23.5c-2.199219 0-4 1.800781-4 4v7c2.199219 0 4 1.800781 4 4s-1.800781 4-4 4v7c0 2.199219 1.800781 4 4 4h23.5c0-.800781.699219-1.5 1.5-1.5s1.5.699219 1.5 1.5h5.5c2.199219 0 4-1.800781 4-4v-7c-2.199219 0-4-1.800781-4-4s1.800781-4 4-4zm-11 15.5c-.800781 0-1.5-.699219-1.5-1.5s.699219-1.5 1.5-1.5 1.5.699219 1.5 1.5-.699219 1.5-1.5 1.5zm0-5c-.800781 0-1.5-.699219-1.5-1.5s.699219-1.5 1.5-1.5 1.5.699219 1.5 1.5-.699219 1.5-1.5 1.5zm0-5c-.800781 0-1.5-.699219-1.5-1.5s.699219-1.5 1.5-1.5 1.5.699219 1.5 1.5-.699219 1.5-1.5 1.5zm0-5c-.800781 0-1.5-.699219-1.5-1.5s.699219-1.5 1.5-1.5 1.5.699219 1.5 1.5-.699219 1.5-1.5 1.5zm0-5c-.800781 0-1.5-.699219-1.5-1.5s.699219-1.5 1.5-1.5 1.5.699219 1.5 1.5-.699219 1.5-1.5 1.5z" fill="#ffa726"/></svg>

<svg xmlns="http://www.w3.org/2000/svg" viewBox="0 0 48 48" width="50" height="50" fill="#666"><path d="M 44 20 L 44 13 C 44 10.800781 42.199219 9 40 9 L 34.5 9 C 34.5 9.800781 33.800781 10.5 33 10.5 C 32.199219 10.5 31.5 9.800781 31.5 9 L 8 9 C 5.800781 9 4 10.800781 4 13 L 4 20 C 6.199219 20 8 21.800781 8 24 C 8 26.199219 6.199219 28 4 28 L 4 35 C 4 37.199219 5.800781 39 8 39 L 31.5 39 C 31.5 38.199219 32.199219 37.5 33 37.5 C 33.800781 37.5 34.5 38.199219 34.5 39 L 40 39 C 42.199219 39 44 37.199219 44 35 L 44 28 C 41.800781 28 40 26.199219 40 24 C 40 21.800781 41.800781 20 44 20 Z M 33 35.5 C 32.199219 35.5 31.5 34.800781 31.5 34 C 31.5 33.199219 32.199219 32.5 33 32.5 C 33.800781 32.5 34.5 33.199219 34.5 34 C 34.5 34.800781 33.800781 35.5 33 35.5 Z M 33 30.5 C 32.199219 30.5 31.5 29.800781 31.5 29 C 31.5 28.199219 32.199219 27.5 33 27.5 C 33.800781 27.5 34.5 28.199219 34.5 29 C 34.5 29.800781 33.800781 30.5 33 30.5 Z M 33 25.5 C 32.199219 25.5 31.5 24.800781 31.5 24 C 31.5 23.199219 32.199219 22.5 33 22.5 C 33.800781 22.5 34.5 23.199219 34.5 24 C 34.5 24.800781 33.800781 25.5 33 25.5 Z M 33 20.5 C 32.199219 20.5 31.5 19.800781 31.5 19 C 31.5 18.199219 32.199219 17.5 33 17.5 C 33.800781 17.5 34.5 18.199219 34.5 19 C 34.5 19.800781 33.800781 20.5 33 20.5 Z M 33 15.5 C 32.199219 15.5 31.5 14.800781 31.5 14 C 31.5 13.199219 32.199219 12.5 33 12.5 C 33.800781 12.5 34.5 13.199219 34.5 14 C 34.5 14.800781 33.800781 15.5 33 15.5 Z" fill="#ffa726"/></svg>
